!!!!SEGMENT: pl-wtm--r-425-m_moniuszko-stanislaw-hamlet-marsz.krn
!!!id: 18xx:2942
!!!COM: Moniuszko, Stanisław
!!!COM-rism: pe30008351
!!!CDT: 1819/05/05-1872/06/04
!!!CNT: Polish
!!!OTL: Hamlet – Marsz
!!!PDT:
!!!SMS-siglum: PL-Wtm
!!!SMS-shelfmark: R 425/M
!!!NIFC-rismID: 1001087256
!!!URL-scan: http://repozytorium.nifc.pl/skany/pl-wtm-nut--r425m
!!!ONB-nifc:
!!!SMS-variant:
!!!SMS-altvar:
!!!OMD:Pomposo, [[Maëstoso]], non troppo lento.
**kern	**kern	**dynam
*part1	*part1	*part1
*staff2	*staff1	*
*I"Piano.	*I"Piano.	*
*clefF4	*clefG2	*
*k[b-e-]	*k[b-e-]	*
*M4/4	*M4/4	*
*met(c)	*met(c)	*
=1	=1	=1
!	!	!LO:DY:rj
1r	2.d^/	f
!	!LO:TUP:b	!
.	12f/L	.
.	12f/	.
.	12f/J	.
=2	=2	=2
1r	2.d^/	.
*	*Xtuplet	*
.	12f/L	.
.	12f/	.
.	12f/J	.
=3	=3	=3
1r	4d/	.
.	8.f/L	.
.	16f/Jk	.
.	4d/	.
.	4f/	.
=4	=4	=4
1r	4b-^/	.
.	4f^/	.
.	4d^/	.
.	8.B-^/L	.
.	16d/Jk	.
=5	=5	=5
*	*^	*
4B-\ 4F\ 4BB-\	4f/ 4d^/	2ryy	.
4r	8.dd/L 8.b-/ 8.d/	.	.
.	16cc/Jk 16a/ 16d/	.	.
4BB-/ 4BBB-^/	4dd/ 4b-^/	4d\	.
4C/ 4CC/	8.cc/L 8.a/	4e-\	.
.	16b-/Jk 16g/	.	.
*	*v	*v	*
!!LO:LB:g=original
=6	=6	=6
*^	*	*
4D/ 4DD/	2.DD\	4a/ 4f#X'/	.
8.D/L	.	4b-/ 4g/ 4d'/	.
16D/Jk	.	.	.
4D/	.	2cc/ 2a/ [2d^/	.
4D/ 4DD/	4ryy	.	.
*v	*v	*	*
=7	=7	=7
*	*^	*
4G/ 4GG/	4b-/ 4g/ 4d/]	2ryy	.
8.D\L	8.a/L 8.f/	.	.
16E-\Jk	16g/Jk 16e-/	.	.
4F\	8.f/L	4d\	.
.	16g/Jk	.	.
4F/ 4FF/	4a/ 4f/	4e-\ 4c\	.
*	*v	*v	*
=8	=8	=8
4BB-/ 4BBB-'/	4b-/ 4f/ 4d'/	.
4B-\ 4BB-'\	4dd/ 4b-/ 4f'/	.
4.B-\ 4.F^\	4.cc/ 4.f^/	.
8r	8r	.
=9	=9	=9
2d\ 2B-\	2ff/ 2dd/ 2b-/ 2f^/	.
4..B-\ 4..BB-\	4..dd/ 4..b-/ 4..f^/	.
16B-\ 16D\	16b-/ 16f/ 16d/	.
=10	=10	=10
4B-\ 4E-'\	4g/ 4e-'/	.
4B-\ 4G\ 4C'\	4b-/ 4e-/ 4c/	.
4.A\ 4.F^\	4.f/ 4.c^/	.
8r	8r	.
!!LO:LB:g=original
=11	=11	=11
2d\ 2B-\	2ff\ 2dd\ 2b-\ 2f^\	.
4..B-\ 4..F\ 4..BB-\	4..dd\ 4..b-\ 4..f\	.
16B-\ 16F\ 16D\	16b-/ 16f/ 16d/	.
=12	=12	=12
*	*^	*
4B-\ 4G\ 4E-\	4g/ 4e-/	4ryy	.
4B-\ 4G\ 4C\	8.cc/L 8.e-/	4c\	.
.	16cc/Jk 16e-/	.	.
2A\ 2F\	(>4cc^</	4.c\	.
.	8f/)	.	.
.	8r	8ryy	.
*	*v	*v	*
=13	=13	=13
4D/ 4DD/	4f/ 4d/	p
8.B-\L 8.D\	8.g/L 8.d/	.
16A\Jk 16D\	16a/Jk 16d/	.
4G\ 4D'\	4b-/ 4d'/	.
4D/ 4DD'/	4b-/ 4g/ 4d'/	.
=14	=14	=14
4D/ 4DD/	(>4..a/ 4..f/ 4..d/	.
8.D/L 8.DD/	.	.
16D/Jk 16DD/	16g/ 16en/ 16d/	.
8D/ 8DD/	8a/ 8f/ 8d/)	.
8r	8r	.
4D/ 4DD^/	4b-/ 4f/ 4d^/	.
=15	=15	=15
4E-/ 4EE-^/	4g/ 4e-^/	.
4D/ 4DD^/	4b-/ 4f/ 4d^/	.
4C/ 4CC^/	4e-/ 4c^/	.
4BB-/ 4BBB-^/	4g/ 4d/ 4B-^/	.
!!LO:LB:g=original
=16	=16	=16
*	*^	*
4AA/ 4AAA^/	(4..f^/	4c\	.
4FF'/	.	4A\	.
.	16e-/	.	.
4BB-/ 4BBB-/	4d/)	4B-\	.
4r	4r	4ryy	.
*	*v	*v	*
=17	=17	=17
!	!	!LO:DY:rj
4B-\ 4G\	4g/ 4e-/	f
8.B-\L 8.G\	8.g/L 8.e-/	.
16B-\Jk 16G\	16g/Jk 16e-/	.
2B-\ 2F\ 2D^\	2dd/ 2b-/ 2f^/	.
=18	=18	=18
4B-\ 4G\	4g/ 4e-/	.
8.B-\L 8.G\	8.g/L 8.e-/	.
16B-\Jk 16G\	16g/Jk 16e-/	.
2B-\ 2F\ 2D^\	2dd/ 2b-/ 2f^/	.
=19	=19	=19
4B-\ 4G\	8.g/L 8.e-/	<
.	16b-/K 16g/	.
8.B-\L 8.G\ 8.E-\	8.cc/ 8.g/	.
16B-\Jk 16F\ 16D\	16dd/Jk 16b-/ 16g/	[
4B-\ 4E-\ 4C\	4ee-/ 4cc/ 4g/	.
8.B-\L 8.F\ 8.D\	8.dd/L 8.b-/	.
16B-\Jk 16G\ 16E-\	16ee-\Jk 16cc\ 16g\	.
=20	=20	=20
*	*^	*
4B-\ 4F\	(2dd/ 2b-/	4f\	.
4f\ 4F^\	.	4ryy	.
4F/ 4FF^/	4cc/ 4a/)	2ryy	.
4r	4r	.	.
*	*v	*v	*
!!LO:PB:g=original
=21	=21	=21
*tremolo	*ped	*
32BBB-/LLL	2ff/ 2dd/ 2b-/ 2f^/	ff
32BB-/	.	.
32BBB-/	.	.
32BB-/	.	.
32BBB-/	.	.
32BB-/	.	.
32BBB-/	.	.
32BB-/	.	.
32BBB-/	.	.
32BB-/	.	.
32BBB-/	.	.
32BB-/	.	.
32BBB-/	.	.
32BB-/	.	.
32BBB-/	.	.
32BB-/JJJ	.	.
*Xtremolo	*	*
4BBB-/	4..dd/ 4..b-/ 4..f^/	.
4B-\ 4BB-^\	.	.
*	*Xped	*
.	16b-/ 16f/ 16d/	.
=22	=22	=22
*^	*	*
4BB-/ 4BBB-^/	2ryy	4g/ 4e-'/	.
4B-\ 4BB-\	.	4b-/ 4g/ 4e-'/	.
4B-^</	2BB-\	2f/ 2e-/ 2c^>/	.
(<12A^</L	.	.	.
12G^</	.	.	.
12F^</J)	.	.	.
*v	*v	*	*
=23	=23	=23
*	*ped	*
4d\ 4B-\ 4F^\	2ff/ 2dd/ 2b-/ 2f/	.
32BBB-/LLL	.	.
32BB-/	.	.
32BBB-/	.	.
32BB-/	.	.
32BBB-/	.	.
32BB-/	.	.
32BBB-/	.	.
32BB-/JJJ	.	.
4BBB-/	4..dd/ 4..b-/ 4..f^/	.
4B-\ 4BB-^\	.	.
.	16b-/ 16f/ 16d/	.
*	*Xped	*
=24	=24	=24
*^	*	*
4BB-/ 4BBB-^/	4ryy	4g/ 4e-'/	.
8.B-/L	4BB-\	4cc/ 4g/ 4e-/ 4c'/	.
16B-/Jk	.	.	.
4B-/	2F\	2f/ 2e-/ 2c^/	.
(<12A^</L	.	.	.
12G^</	.	.	.
12F^</J)	.	.	.
*v	*v	*	*
!!LO:LB:g=original
=25	=25	=25
*	*^	*
2.BB-/ 2.BBB-^/	4f/ 4d/	2ryy	.
.	8.dd/L 8.b-/ 8.d/	.	.
.	16cc/Jk 16a/ 16d/	.	.
.	2dd/ 2b-^/	4d\	.
4C/ 4CC/	.	4e-\	.
=26	=26	=26	=26
2.D/ 2.DD^/	4r	4f\	.
.	8.dd/L 8.b-/	8.f\L	.
.	16cc/Jk 16a/	16f\Jk	.
.	2dd/ 2b-^/	4f\	.
4E-/ 4EE-/	.	4g\	.
*	*v	*v	*
=27	=27	=27
4F/ 4FF/	8.dd/L 8.b-^>/	.
.	16cc/K 16a/	.
8.G/L 8.GG/	8.b-/ 8.g/	.
16A/Jk 16AA/	16cc/Jk 16f/	.
4B-\ 4BB-\	4dd/ 4f/	.
4G\ 4GG\	4b-/ 4g/	.
=28	=28	=28
2C/ 2CC^^>/	2ee-/ 2b-/ 2g/ 2e-^^>/	.
2F/ 2FF^^>/	(>2cc/ 2a/ 2f/ 2e-^^>/	.
=29	=29	=29
*^	*^	*
4BB-/	2.BBB-\	4dd/^^> 4b-/ 4f/ 4d/)	2ryy	.
8.BB-/L	.	8.dd/L 8.b-/ 8.d/	.	.
16BB-/Jk	.	16cc/Jk 16a/ 16d/	.	.
4BB-/	.	2dd/ 2b-^/	4d\	.
4C/ 4BB-/	4CC\	.	4e-\	.
!!LO:LB:g=original
=30	=30	=30	=30	=30
4D/ 4BB-/	2.DD\	8rdd	4f\	.
.	.	(<16dd/LL 16b-/	.	.
.	.	16ee-/JJ 16cc/)	.	.
8.D/L 8.BB-/	.	8.dd/L 8.b-/	8.f\L	.
16D/Jk 16BB-/	.	16cc/Jk 16a/	16f\Jk	.
4D/ 4BB-/	.	2dd/ 2b-^/	4f\	.
4E-/ 4BB-/	4EE-\	.	4g\	.
*v	*v	*	*	*
=31	=31	=31	=31
4F/ 4BB-/ 4FF/	8.dd/L 8.b-^/	4f\	.
.	16cc/K 16a/	.	.
8.G/L 8.GG/	8.b-/ 8.g/ 8.f/	4ryy	.
16A/Jk 16AA/	16cc/Jk 16a/ 16f/	.	.
4B-\ 4BB-\	4dd/ 4b-/ 4f/ 4d/	2ryy	.
4G\ 4GG\	4b-/ 4g/ 4d/	.	.
*	*v	*v	*
=32	=32	=32
2E-/ 2EE-^/	2gg\ 2ee-\ 2cc\ 2b-\ 2g^^\	.
2F/ 2C/ 2FF^/	2ff\ 2ee-\ 2cc\ 2a\ 2f^^\	.
=33	=33	=33
*	*ped	*
4BB-/ 4BBB-/	2.bb-\ 2.ff\ 2.dd\ 2.b-^\	.
8.d\L 8.B-\ 8.F\ 8.D\	.	.
16d\Jk 16B-\ 16F\ 16D\	.	.
4d\ 4B-\ 4F\ 4D\	.	.
*	*Xped	*
.	.	.
*	*tuplet	*
!	!LO:TUP:a	!
8.BB-/L 8.BBB-/	12ff\L 12dd\ 12b-'\	.
.	12ff\ 12dd\ 12b-'\	.
.	12ff\J 12dd\ 12b-'\	.
16BB-/Jk 16BBB-/	.	.
=34	=34	=34
*	*ped	*
4BB-/ 4BBB-/	2.ff\ 2.dd\ 2.b-^\	.
8.d\L 8.B-\ 8.F\ 8.D\	.	.
16d\Jk 16B-\ 16F\ 16D\	.	.
4d\ 4B-\ 4F\ 4D\	.	.
*	*Xped	*
.	.	.
8.BB-/L 8.BBB-/	12dd/L 12b-/ 12f'/	.
.	12dd/ 12b-/ 12f'/	.
.	12dd/J 12b-/ 12f'/	.
16BB-/Jk 16BBB-/	.	.
!!LO:LB:g=original
=35	=35	=35
*	*ped	*
4BB-/ 4BBB-'/	2.dd/ 2.b-/ 2.f^/	.
8.d\L 8.B-\ 8.F\ 8.D\	.	.
16d\Jk 16B-\ 16F\ 16D\	.	.
4d\ 4B-\ 4F\ 4D\	.	.
*	*Xped	*
.	.	.
!LO:TUP:b	!	!
12BB-/L 12BBB-'/	12b-/L 12f/ 12d'/	.
12BB-/ 12BBB-'/	12b-/ 12f/ 12d'/	.
12BB-/J 12BBB-'/	12b-/J 12f/ 12d'/	.
=36	=36	=36
*	*ped	*
4BB-/ 4BBB-/	4b-/ 4f/ 4d/	.
4F\ 4BB-'\	4f/ 4d'/	.
4BB-/ 4BBB-'/	4d/ 4B-'/	.
4F\ 4BB-'\	4f/ 4d'/	.
=37	=37	=37
2BB-/ 2BBB-/	2b-/ 2d/ 2B-^/	.
2F\ 2BB-\	2b-/ 2d/ 2B-^/	.
=38	=38	=38
!LO:TX:b:t=V.S. %	!	!
1F/ 1BB-/	1b-/ 1d/ 1B-/^	.
*	*Xped	*
!!LO:PB:g=original
=39||	=39||	=39||
*k[b-e-a-]	*k[b-e-a-]	*
*	*ped	*
!LO:TX:t=P:problem:dolna oktawa oznaczona cyfrą 8	!	!
4EE-/ 4EEE-'/	1r	p
8B-\L 8E-\ 8BB-'\	.	.
8B-\J 8E-\ 8BB-'\	.	.
4B-\ 4E-\ 4BB-\	.	.
4BB-/ 4BBB-'/	.	.
=40	=40	=40
*rep	*	*
!LO:TX:t=P:problem:dolna oktawa oznaczona cyfrą 8	!	!
4EE-/ 4EEE-'/	1r	.
8B-\L 8E-\ 8BB-'\	.	.
8B-\J 8E-\ 8BB-'\	.	.
4B-\ 4E-\ 4BB-\	.	.
4BB-/ 4BBB-'/	.	.
*Xrep	*	*
=41	=41	=41
*rep	*	*
!LO:TX:t=P:problem:dolna oktawa oznaczona cyfrą 8	!	!
4EE-/ 4EEE-'/	8.b-/L 8.g/	mf
*	*Xped	*
.	.	.
.	16cc/K 16a-/	.
8B-\L 8E-\ 8BB-'\	8.b-/ 8.g/	.
8B-\J 8E-\ 8BB-'\	.	.
.	16a-/Jk 16f/	.
4B-\ 4E-\ 4BB-\	4g/ 4e-/	.
4BB-/ 4BBB-'/	4f/ 4d/	.
*Xrep	*	*
=42	=42	=42
!LO:TX:t=P:problem:dolna oktawa oznaczona cyfrą 8	!	!
4EE-/ 4EEE-/	4..g/ 4..e-/	.
8B-\L 8E-\ 8BB-\	.	.
8B-\J 8E-\ 8BB-\	.	.
.	16b-/ 16g/	.
4B-\ 4E-\ 4BB-\	[2ee-/ 2g/ 2e-^/	.
4E-/ 4EE-/	.	.
=43	=43	=43
*	*^	*
4BB-/ 4BBB-/	8ee-/L]	4a-\ 4f\	.
.	8dd/	.	.
8B-\L 8BB-\	8cc/	8a-\L 8f\	.
8B-\J 8BB-\	8dd/J	8a-\J 8f\	.
4B-\ 4E-\	4ee-/	4g\ 4e-\	.
4BB-/ 4BBB-/	4cc/ 4a-/ 4d/	4ryy	.
!!LO:LB:g=original
=44	=44	=44	=44
4E-/ 4EE-/	(2b-/	4a-\ 4e-^\	.
.	.	8qa-/	.
8B-\L 8E-\ 8BB-\	.	8.g\L 8.e-\	.
8B-\J 8E-\ 8BB-\	.	.	.
.	.	16f\Jk 16e-\	.
4B-\ 4E-\ 4BB-\	4g/)	4e-\	.
4E-/ 4EE-/	4g/	4e-\	.
*	*v	*v	*
=45	=45	=45
4BB-/ 4BBB-/	8f/L 8d/	<
.	8g/ 8e-/	.
8B-\L 8BB-\	8a-/ 8f/	.
8B-\J 8BB-\	8b-/J 8g/	[
4B-\ 4BB-\	4cc/ 4a-/	.
4E-/ 4EE-/	4cc/ 4a-/ 4e-/	.
=46	=46	=46
4BB-/ 4BBB-/	(4..cc/ 4..a-/ (4..e-^/	.
8B-\L 8BB-\	.	.
8B-\J 8BB-\	.	.
.	16ff/ 16cc/ 16a-/))	.
4B-\ 4BB-\	([2ff/ [>2cc/ [2a-^/	.
4E-/ 4EE-/	.	.
=47	=47	=47
*	*^	*
4BB-/ 4BBB-/	8ff/]L 8cc/] 8a-'/]	2ryy	.
.	8ee-/ 8b-/ 8g'/	.	.
8B-\L 8BB-\	8dd/ 8a-/ 8f'/	.	.
8B-\J 8BB-\	8cc/J 8g/ 8e-'/)	.	.
4B-\ 4BB-\	4b-/ 4f/ 4d/	4ryy	.
4BB-/ 4BBB-/	(<16f/KL	4d\	.
.	8.a-/J)	.	.
*	*v	*v	*
!!LO:LB:g=original
=48	=48	=48
4E-/ 4EE-/	4..g/ 4..e-/	.
8B-\L 8E-\ 8BB-\	.	.
8B-\J 8E-\ 8BB-\	.	.
.	16g/ 16e-/	.
4B-\ 4E-\ 4BB-\	2g/ 2e-/	.
4E-/ 4EE-/	.	.
=49	=49	=49
*ped	*	*
!	!	!LO:DY:rj
4GG/ 4GGG/	8g/L 8d/ 8Bn^/	fff
.	8bn/ 8g/ 8d^/	.
8.d\L 8.Bn\ 8.G\ 8.D\	8dd/ 8b/ 8g^/	.
.	8gg/J 8dd/ 8b^/	.
16d\Jk 16B\ 16G\ 16D\	.	.
4d\ 4B\ 4G\ 4D\	4bbn\ 4gg\ 4dd^\	.
*Xped	*	*
.	.	.
*8ba	*	*
4DD/ 4DDD/	4aan\ 4ff#X\ 4dd\ 4cc^\	.
*X8ba	*	*
=50	=50	=50
*ped	*	*
4GG/ 4GGG/	4..gg\ 4..dd\ 4..bn^\	.
8.Bn\L 8.G\ 8.D\	.	.
16B\Jk 16G\ 16D\	16d/	.
*Xped	*	*
4B\ 4G\ 4D\	(>2d^/	.
!	!	!LO:DY:b=2:rj
4GG/ 4GGG'/	.	pp
=51	=51	=51
*	*ped	*
!LO:TX:t=P:problem:dolna oktawa oznaczona cyfrą 8	!	!LO:DY:a:t=ppp.
4EE-/ 4EEE-/	(8e-X/L 8B-X/ 8G/)	ppp
.	8g/ 8e-/ 8B-/	.
8B-\L 8E-\ 8BB-\	8b-/ 8g/ 8e-/	.
8B-\J 8E-\ 8BB-\	8ee-/J 8b-/ 8g/)	.
4B-\ 4E-\ 4BB-\	4gg\ 4ee-\ 4b-'\	.
*	*Xped	*
.	.	.
4BB-/ 4BBB-/	4ff\ 4dd\ 4b-\ 4a-'\	.
!!LO:LB:g=original
=52	=52	=52
*	*^	*
*	*ped	*	*
4EE-/	(4..ee-\ 4..b-\ 4..g\	2ryy	.
8.B-\L 8.E-\ 8.BB-\	.	.	.
16G\Jk 16E-\ 16BB-\	16B-/)	.	.
4G\ 4E-\ 4BB-\	4B-^/	4ryy	.
*	*Xped	*	*
.	.	.	.
!LO:TX:t=P:problem:dolna oktawa oznaczona cyfrą 8	!	!	!LO:DY:rj
4EE-\ 4EEE-\	8.B-/L	4G</ 4E-</	mf
.	16c/Jk	.	.
*	*v	*v	*
=53	=53	=53
*	*^	*
*	*ped	*	*
4BB-\ 4BBB-\	(>2c/ [2A-</ 2E-</	2ryy	.
8.F\L 8.BB-\	.	.	.
16F\Jk 16BB-\	.	.	.
*	*Xped	*	*
.	.	.	.
4F\ 4D\ 4BB-\	4B-/ 4A-</])	4ryy	.
4BB-\ 4BBB-\	(<8d/L	4A-</ 4F</	.
.	8e-/J)	.	.
*	*v	*v	*
=54	=54	=54
*^	*	*
*	*	*ped	*
!LO:TX:t=P:problem:dolna oktawa oznaczona cyfrą 8	!	!	!LO:DY:rj
4EE-\ 4EEE-\	2ryy	(>2f/ 2d-X/ 2G</	.
8.B-\L 8.E-\ 8.BB-\	.	.	.
16B-\Jk 16E-\ 16BB-\	.	.	.
*	*	*Xped	*
.	.	.	.
4B-\ 4E-\	4ryy	4e-/ 4d-/ 4G</)	.
4EE-\	4E-/	(8g/L 8B-/	.
.	.	8b-/J 8d-/)	.
=55	=55	=55	=55
(4En/	4AA-\	(4b-/ (4d-X/	.
4F/)	4AA-\	8.a-/L 8.c/))	.
.	.	16g/Jk 16B-/	.
(4C/	4BB-\	(4g/ (4B-/	.
8.Dn/L)	4BB-\	8.f/L 8.A-/))	.
!LO:SIC:v:s=16E-/Jk	!	!	!
16E/Jk	.	16e-/Jk 16G/	.
*v	*v	*	*
!!LO:PB:g=original
=56	=56	=56
*	*^	*
4E-/ 4EE-/	2.g/ 2.e-^/	2.B-\ 2.G\	.
8.B-\L 8.E-\ 8.BB-\	.	.	.
16B-\Jk 16E-\ 16BB-\	.	.	.
4B-\ 4E-\ 4BB-\	.	.	.
!	!LO:TX:a:i:t=dolce.	!	!LO:DY:a:rj
4B-\ 4E-\ 4BB-\	8.b-/L	4g\ 4e-\	p
.	16cc/Jk	.	.
*	*v	*v	*
=57	=57	=57
4BB-/ 4BBB-/	(2cc/ 2a-/ (2e-/	.
8.B-\L 8.F\ 8.BB-\	.	.
16B-\Jk 16F\ 16BB-\	.	.
4B-\ 4F\ 4BB-\	4b-/ 4a-/ 4d/))	.
[4B-\ 4BB-\	(8dd/L 8f/	.
.	8ff/J 8a-X/)	.
=58	=58	=58
*	*^	*
4B-\] 4E-\	(2ff/ (2a-X/	2ryy	<
8.Bn\L 8.E-\	.	.	.
16B\Jk 16E-\	.	.	.
4c\ 4E-\	4ee-/ 4g/))	4ryy	.
(4c#X\ (4E-\	(<8gg/L	4b-\	.
.	8bb-/J)	.	[
*	*v	*v	*
=59	=59	=59
!	!LO:TX:b:t=di-mi-nu-en-do.:ext2=c:problem:dynamics with extension lines	!LO:HP:t=di-mi-nu-en-do.
4d\ 4D\))	(4bb-/ (4dd/	>
(4f#X>\ (4d>\	8.aan/L 8.cc/))	.
.	16gg/Jk 16b-/	.
4g>\ 4d>\ 4G\))	(4gg/ (4b-/	.
4d\ 4B-\	8.ffn/L 8.a-X/))	.
.	16ee-/Jk 16g/	]
!!LO:LB:g=original
=60	=60	=60
*	*^	*
!	!LO:TX:t=P:problem:cres:	!	!
4e-\	2.gg/	4b-\	.
!LO:TUP:a	!	!LO:TUP:a	!
12e-\L 12E-^\	.	12ee-^>\L	<
12B-\	.	12b-\	.
12G\J	.	12g\J	.
4E-\	.	4e-\	.
!	!	!	!LO:DY:rj
4C/ 4CC/	4g/ 4e-/ 4c/	4ryy	ff
*	*v	*v	*
=61	=61	=61
*	*ped	*
4GG/ 4GGG/	8g/L 8d/ 8Bn^/	.
.	8bn/ 8g/ 8d^/	.
!LO:SIC:v:n=3:s=8.Bn:n=4:s=8.d	!	!
8.dn\L 8.B-\ 8.G\ 8.D\	8dd/ 8b/ 8g^/	.
.	8gg/J 8dd/ 8b^/	.
!LO:SIC:v:n=3:s=16B	!	!
16d\Jk 16B-\ 16G\ 16D\	.	.
!LO:SIC:v:n=2:s=4B	!LO:SIC:v:n=3:s=4bbn	!
4d\ 4B-\ 4D\	4bb-\ 4gg\ 4dd^\	.
*8ba	*Xped	*
.	.	.
4DD/ 4DDD/	4aan\ 4ff#X\ 4dd\ 4cc^\	.
*X8ba	*	*
=62	=62	=62
*	*ped	*
4GG/ 4GGG/	(4..gg\ 4..dd\ 4..bn\	.
8.Bn\L 8.G\ 8.D\	.	.
16B\Jk 16G\ 16D\	16d/)	.
4B\ 4G\ 4D\	2d^/	.
*	*Xped	*
!	!	!LO:DY:b=2:rj
.	.	.
4GG/ 4GGG'/	.	pp
=63	=63	=63
*	*ped	*
!LO:TX:t=P:problem:dolna oktawa oznaczona cyfrą 8	!	!LO:DY:a
4EE-X/ 4EEE-/	(8e-X/L 8B-X/ 8G/	ppp
.	8g/ 8e-/ 8B-/	.
8B-\L 8E-\ 8BB-\	8b-/ 8g/ 8e-/	.
8B-\J 8E-\ 8BB-\	8ee-/J 8b-/ 8g/	.
4B-\ 4E-\ 4BB-\	4gg\ 4ee-\ 4b-'\)	.
*	*Xped	*
.	.	.
4BB-/ 4BBB-/	4ff\ 4dd\ 4b-\ 4a-\	.
!!LO:LB:g=original
=64	=64	=64
*	*^	*
*	*ped	*	*
4EE-/	(4..ee-\ 4..b-\ 4..g\	2ryy	.
8.B-\L 8.E-\ 8.BB-\	.	.	.
16G\Jk 16E-\ 16BB-\	16B-/)	.	.
4G\ 4E-\ 4BB-\	4B-/	4ryy	.
*	*Xped	*	*
.	.	.	.
!LO:TX:t=P:problem:dolna oktawa oznaczona cyfrą 8	!	!	!LO:DY:rj
4EE-\ 4EEE-\	8.B-/L	4G</ 4E-</	mf
.	16c/Jk	.	.
*	*v	*v	*
*X8ba	*	*
=65	=65	=65
*	*^	*
*	*ped	*	*
4BB-\ 4BBB-\	(>2c/ [<2A-</ 2E-</	2ryy	.
8.F\L 8.BB-\	.	.	.
16F\Jk 16BB-\	.	.	.
*	*Xped	*	*
.	.	.	.
4F\ 4D\ 4BB-\	4B-/ 4A-</])	4ryy	.
4BB-\ 4BBB-\	(<8d/L	4A-</ 4F</	.
.	8e-/J)	.	.
*	*v	*v	*
=66	=66	=66
*^	*	*
*	*	*	*ped
!LO:TX:t=P:problem:dolna oktawa oznaczona cyfrą 8	!	!	!
4EE-\ 4EEE-\	2ryy	(>2f/ 2d-X/ 2A-</	.
8.B-\L 8.E-\ 8.BB-\	.	.	.
16B-\Jk 16E-\ 16BB-\	.	.	.
*	*	*Xped	*
.	.	.	.
4B-\ 4E-\	4ryy	4e-/ 4d-/ 4G</)	.
4EE-\	4E-/	(8g/L 8B-/	.
.	.	8b-/J 8d-/)	.
=67	=67	=67	=67
(<4En/	4AA-\	(4b-/ (4d-X/	.
4F/)	4AA-\	8.a-/L 8.c/))	.
.	.	16g/Jk 16B-/	.
(4C/	4BB-\	(4g/ (4B-/	.
8.Dn/L)	4BB-\	8.f/L 8.A-/))	.
!LO:SIC:v:s=16E-/Jk	!	!	!
16E/Jk	.	16e-/Jk 16G/	.
*v	*v	*	*
!!LO:LB:g=original
=68	=68	=68
*	*^	*
4E-/ 4EE-/	2.g/ 2.e-^/	2.B-\ 2.G\	.
8.B-\L 8.E-\ 8.BB-\	.	.	.
16B-\Jk 16E-\ 16BB-\	.	.	.
4B-\ 4E-\ 4BB-\	.	.	.
!	!LO:TX:a:i:t=dolce.	!	!LO:DY:a:rj
4B-\ 4E-\ 4BB-\	8.b-/L	4g\ 4e-\	p
.	16cc/Jk	.	.
*	*v	*v	*
=69	=69	=69
*	*ped	*
!	!LO:TX:b:t=ra-len-tan-do.:dur=9qe:ext2=cd:problem:text with extension lines	!
4BB-/ 4BBB-/	(2cc/ 2a-/ (2e-/	.
8.B-\L 8.F\ 8.BB-\	.	.
16B-\Jk 16F\ 16BB-\	.	.
*	*Xped	*
.	.	.
4B-\ 4F\ 4BB-\	4b-/ 4a-/ 4d'/))	.
4B-\ 4BB-\	(8dd/L 8f/	.
.	8ff/J 8a-X/)	.
=70	=70	=70
*^	*^	*
*	*	*ped	*	*
4B-\ 4E-\	4ryy	(2ff/ (2a-X/	2ryy	.
8.Bn/L	2E-\	.	.	.
16B/Jk	.	.	.	.
*	*	*Xped	*	*
4c/	.	4ee-/ 4g/))	4ryy	.
(4c#X/	(4E-\	(<8gg/L	4b-\	.
!	!	!LO:TX:a:t=di-mi-nu-en-do:ext2=c:problem:dynamics with extension lines	!LO:HP:a:t=di-mi-nu-en-do	!
.	.	8bb-/J)	.	>
*v	*v	*	*	*
*	*v	*v	*
=71	=71	=71
4d\ 4D\))	4bb-/ 4dd/	.
.	8qbb-/	.
8.f#X>\L 8.d>\	8.aan/L 8.cc/	.
16g>\Jk 16d>\ 16G\	16gg/Jk 16b-/	.
4g>\ 4d>\ 4G\	4gg/ 4b-/	]
.	8qgg/	.
8.d\L 8.B-;\	8.ffn/L 8.a-X;/	.
16e-\Jk 16B-\ 16E-\	16ee-/Jk 16g/	.
!!LO:PB:g=original
=72	=72	=72
*^	*	*
!!!OMD:Tempo 1mo
4e-\ 4B-\ 4E-\	2ryy	4ee-/ 4g/	.
8.B-^\L	.	8.b-^/L	.
16G\Jk	.	16g/Jk	.
8E-\	4ryy	8e-^/	.
8r	.	8r	.
!	!	!	!LO:DY:rj
8E-/L	4AA-\ 4AAA-\	8e-/L 8c/	ff
8F/J	.	8f/J	.
=73	=73	=73	=73
*	*	*^	*
*ped	*	*	*	*
2.G/	4GG\ 4GGG\	2.g^^/	4Bn\	.
*	*Xtuplet	*	*	*
.	12Bn\L 12D^>\	.	4ryy	.
.	12B\ 12D^>\	.	.	.
.	12B\J 12D^>\	.	.	.
.	4d\ 4F^>\	.	2ryy	.
*Xped	*	*	*	*
.	.	.	.	.
8.FF/L 8.FFF/	4ryy	8.a-/L 8d/. 8.c/ 8.A-<^^>/	.	.
16GG/Jk 16GGG/	.	16g/Jk 16e-/ 16B/ 16G</	.	.
=74	=74	=74	=74	=74
*ped	*	*	*	*
2.G/	4GG\ 4GGG\	2.g^^/	4d\ 4Bn\	.
.	12Bn\L 12D^>\	.	4ryy	.
.	12B\ 12D^>\	.	.	.
.	12B\J 12D^>\	.	.	.
.	4d\ 4F^>\	.	4ryy	.
*Xped	*	*	*	*
.	.	.	.	.
8.E-/L	4AA-\ 4AAA-\	8.e-^^/L	4c\	.
16F/Jk	.	16f/Jk	.	.
=75	=75	=75	=75	=75
4G/	4GG\ 4GGG\	4g^^/	4Bn\	.
*	*	*	*Xtuplet	*
12D^/L	4FF\	4a-/ 4c^^/	12d^>\L	.
12D^/	.	.	12d^>\	.
12D^/J	.	.	12d^>\J	.
4F^/	4GG\	4g^^/	4f\ 4d\ 4B\	.
12D^/L	8.FF\L	8.a-/L 8.c^^/	12d\L	.
12D^/	.	.	12d\	.
12D^/J	.	.	12B\J	.
.	16GG\Jk	16g/Jk 16d/	.	.
*v	*v	*	*	*
*	*v	*v	*
!!LO:LB:g=original
=76	=76	=76
4F\ 4D\ 4GG^\	4g/ 4d/ 4Bn^/	.
8.GG/L 8.GGG/	8.g/L 8.f/ 8.d/ 8.B/ 8.G</	.
16GG/Jk 16GGG/	16g/Jk 16f/ 16d/ 16B/ 16G</	.
(4AA-/ 4AAA-^/	(>4g/ 4e-/ 4c/ 4G<^>/	.
4AAn/ 4AAAn/	4f/ 4e-/ 4c/ 4F</)	.
=77||	=77||	=77||
*k[b-e-]	*k[b-e-]	*
*ped	*	*
!	!	!LO:DY:rj
4BB-/ 4BBB-/)	4f/ 4d/ 4B-/ 4F</	sf
8.B-\L 8.F\ 8.D\	8.dd/L 8.b-/ 8.d/	.
*Xped	*	*
.	.	.
16B-\Jk 16F\ 16D\	16cc/Jk 16a/ 16d/	.
4B-\ 4F\ 4D\	4dd/ 4b-/ 4d/	.
4C/ 4CC/	8.cc/L 8.a/ 8.e-/ 8.c/	.
.	16b-/Jk 16g/ 16B-/	.
=78	=78	=78
*	*^	*
4D\ 4DD\	4a/ 4f#X/ 4d/ 4A'/	2ryy	.
8.D\L 8.DD\	4b-/ 4g/ 4d/ 4B-'/	.	.
16D\Jk 16DD\	.	.	.
4D\ 4DD\	2cc/ 2a^/	4d\ 4c\	.
4f#X>\: 4d>\: 4c\: 4A:\	.	4ryy	.
=79	=79	=79	=79
4G\ 4D\ 4GG\	4b-/ 4g/ 4d/ 4B-^/	2ryy	.
8.D/L 8.DD/	8.a/L 8.fn/ 8.A/	.	.
16E-/Jk 16EE-/	16g/Jk 16e-/ 16G/	.	.
4F/ 4FF/	8.f/L 8.d/	4F\	.
.	16g/Jk	.	.
4FF/ 4FFF/	4a/ 4f/	4e-\ 4c\	.
*	*v	*v	*
!!LO:LB:g=original
=80	=80	=80
4BB-/ 4BBB-/	4b-/ 4f/ 4d/	.
4B-\ 4F\ 4BB-^\	(4dd/ 4b-/ 4f/ 4d^/	.
4F/ 4FF^/	4cc/ 4f/ 4c/)	.
8.FF/L 8.FFF/	4r	.
16FF/Jk 16FFF/	.	.
=81	=81	=81
*tremolo	*ped	*
32AA-X/LLL 32AAA-X/	2ff/ 2dd/ 2b-/ 2f^/	.
32AA-/ 32AAA-/	.	.
32AA-/ 32AAA-/	.	.
32AA-/ 32AAA-/	.	.
32AA-/ 32AAA-/	.	.
32AA-/ 32AAA-/	.	.
32AA-/ 32AAA-/	.	.
32AA-/ 32AAA-/	.	.
32AA-/ 32AAA-/	.	.
32AA-/ 32AAA-/	.	.
32AA-/ 32AAA-/	.	.
32AA-/ 32AAA-/	.	.
32AA-/ 32AAA-/	.	.
32AA-/ 32AAA-/	.	.
32AA-/ 32AAA-/	.	.
32AA-/JJJ 32AAA-/	.	.
*Xtremolo	*	*
4AAA-/	4..dd/ 4..b-/ 4..f^/	.
*	*Xped	*
.	.	.
!LO:SIC:v:n=2:s=4A-	!	!
4A\ 4AA-^\	.	.
.	16b-/ 16f/ 16d/	.
=82	=82	=82
*^	*	*
4AA-X/ 4AAA-X^/	2ryy	4b-/ 4g-X/ 4e-^/	.
!LO:SIC:v:n=2:s=4A-	!	!	!
4A\ 4AA-^\	.	4ee-/ 4b-/ 4g-/ 4d-X^/	.
4AA-/ 4AAA-/	4ryy	2a/ 2e-/ 2c^/	.
!LO:SIC:v:n=2:s=4A-	!	!	!
4A/	12AA-^>\L	.	.
.	12AA-^>\	.	.
.	12AA-^>\J	.	.
=83	=83	=83	=83
*	*	*ped	*
4AA-X/ 4AAA-X/	4ryy	2ff/ 2dd-X/ 2a-X/ 2f^/	.
12A-X^/L	4AA-\	.	.
12A-^/	.	.	.
12A-^/J	.	.	.
8.d-X/L::	4AA-\	4..dd-/:: 4..a-/:: 4..f^/::	.
*	*	*Xped	*
16A-/K	.	.	.
8.F/	4AA-\	.	.
!	!	!LO:SIC:v:n=1:s=16d-	!
16D-X/Jk	.	16a-/ 16f/ 16d/	.
*v	*v	*	*
!!LO:LB:g=original
=84	=84	=84
*	*^	*
4AA-X/ 4AAA-X/	4b-/ 4g-X/ 4d-X^/	2ryy	.
!LO:SIC:v:n=2:s=4A-	!	!	!
4AX\ 4AA-^\	4ee-/ 4b-/ 4g-/ 4d-^/	.	.
4AA-/ 4AAA-^/	[2a-X/^	4e-\ 4c\	.
*tuplet	*	*tuplet	*
!LO:TUP:b	!	!LO:TUP:a	!LO:DY:rj
12AA-/L 12AAA-^/	.	12c\L^>	mf
12BB-/ 12BBB-/	.	12d-\	.
12C/J 12CC/	.	12e-\J	.
=85	=85	=85	=85
4D-X/ 4DD-X/	4a-X/]	4f^^\	.
8.D-/L 8.DD-/	8.g/L	8.f\L	.
16D-/Jk 16DD-/	16a-/Jk	16f\Jk	.
4D-/ 4DD-/	4b-'/|	4f\	.
8.BB-/L 8.BBB-/	4b-'/|	8.d-X\L	.
16C/Jk 16CC/	.	16e-\Jk	.
=86	=86	=86	=86
4D-X/ 4DD-X/	4..b-^/	4f\	.
(4C/ 4CC/	.	8.e-X\L	.
.	(<32an/LLL	16e-\Jk	.
.	32cc/JJJ)	.	.
!	!	!LO:TX:b:t=cres._cen_do.:ext2=u:problem:dynamics with extension lines	!LO:HP:b:t=cres._cen_do.
4D-/ 4DD-/	[2b-/	4f\	<
(4Dn/ (4DDn/	.	4f#X\	.
=87	=87	=87	=87
4E-/ 4EE-/)))	4b-/]	4g^\	.
8.E-/L 8.EE-/	8.a/L	8.g\L	.
16E-/Jk 16EE-/	16b-/Jk	16g\Jk	.
4E-/ 4EE-/	4cc'/|	4g\	.
8.C/L 8.CC/	4cc'/|	8.e-\L	.
16D/Jk 16DD/	.	16f\Jk	.
=88	=88	=88	=88
4E-/ 4EE-/	4..cc^/	4g\	.
(4D/ 4DD/	.	8.f\L	.
.	(<32bn/LLL	16f\Jk	.
.	32dd/JJJ)	.	.
4E-/ 4EE-/	2cc/	4g\	.
4En/ 4EEn/)	.	4g#X\	.
!!LO:PB:g=original
=89	=89	=89	=89
4F/ 4FF^/	4cc^/	4a\ 4c\	.
4FF/ 4FFF^/	8.dd/L	8.a\L 8.d\	.
.	16ee-/Jk	16a\Jk 16e-\	.
4GG-X/ 4GGG-X^/	4ee-/|	4b-\ 4e-\	[[
4G-X/ 4GG-^/	4ee-/|	4b-\ 4e-\	.
=90	=90	=90	=90
4Gn/ 4GGn^/	4..ee-^/	4b-\ 4e-\	.
4GG/ 4GGG^/	.	8.bn\L 8.e-\	.
.	(<32dd/LLL	16b\Jk	.
.	32ff/JJJ)	.	.
8.AA-X/L 8.AAA-X/	4ee-/|	4cc\	.
16A-X/Jk 16AA-/	.	.	.
8.An/L 8.AAn/	4ee-/|	4cc\ 4g-X\	.
16A/Jk 16AA/	.	.	.
=91	=91	=91	=91
!	!	!	!LO:DY:rj
4B-\ 4BB-\	(8ee-^/L	4b-\ 4f\	ff
.	8dd/J)	.	.
.	8qee-/ 8qcc/	.	.
8.BB-/L 8.BBB-/	8.dd/L 8.b-/	4ryy	.
16C/Jk 16CC/	16cc/Jk 16a/	.	.
4D/ 4DD/	4b-/ 4g/	2ryy	.
4D/ 4DD/	4a/ 4f/	.	.
*	*v	*v	*
=92	=92	=92
4E-/ 4EE-'/	4g/ 4e-'/	.
*	*^	*
8.C/L 8.CC/	(4.cc^/	2e-\ 2c\	.
16C/Jk	.	.	.
4F/ 4FF/	.	.	.
.	8b-/)	.	.
4FF/ 4FFF/	(12a/L	4e-\ 4c\	.
.	12g/)	.	.
.	12f/J	.	.
!!LO:LB:g=original
=93	=93	=93	=93
*	*ped	*	*
!	!LO:TX:a:i:t=tutta la forza	!	!
4BB-/ 4BBB-/	4f/ 4d^/	2ryy	.
8.B-\L 8.F\ 8.D\	8.dd/L 8.b-/ 8.d/	.	.
*	*Xped	*	*
.	.	.	.
16B-\Jk 16F\ 16D\	16cc/Jk 16a/ 16d/	.	.
4B-\ 4F\ 4D\	2dd/ 2b-^/	4d\	.
4C/ 4CC^/	.	4e-^>\	.
=94	=94	=94	=94
*	*	*ped	*
4D/ 4DD^/	8rff	4f^>\	.
.	(<16dd/LL 16b-/	.	.
.	16ee-/JJ 16cc/)	.	.
8.B-\L 8.F\ 8.D\	8.dd/L	8.b-\L	.
*	*	*Xped	*
.	.	.	.
16B-\Jk 16F\ 16D\	16cc/Jk 16a/	16f\Jk	.
4B-\ 4F\ 4D\	2dd/ 2b-^^/	4f\	.
4E-/ 4EE-^/	.	4g\	.
=95	=95	=95	=95
4F/ 4FF^/	8.dd/L 8.b-/	4f\	.
.	16cc/K 16a/	.	.
8.G/L 8.F/ 8.GG/	8.b-/ 8.g/ 8.f/	4ryy	.
16A/Jk 16F/ 16AA/	16cc/Jk 16f/ 16c/	.	.
4B-/ 4F/ 4BB-/	4dd/ 4f/ 4d/	2ryy	.
4G/ 4D/ 4BB-/ 4GG/	4b-/ 4g/ 4d/ 4B-/	.	.
=96	=96	=96	=96
*	*	*ped	*
4C/ 4GG/ 4CC^/	2ee-/ 2b-^^/	4g\ 4e-\	.
4c\:: 4B-\:: 4G::\	.	4g\:: 4e-::\	.
*	*	*Xped	*
.	.	.	.
*	*	*ped	*
4FF/ 4FFF/	(2cc/ 2a^^/	4f\ 4e-\ 4c\	.
4c\:: 4A\:: 4F::\	.	4f\:: 4e-::\	.
*	*	*Xped	*
.	.	.	.
=97	=97	=97	=97
*	*	*ped	*
4BB-/ 4BBB-/	4dd/ 4b-/) 4f/ 4d/	4ryy	.
8.B-\L 8.F\ 8.D\	8.dd/L	8.b-\L 8.d\	.
*	*	*Xped	*
.	.	.	.
16B-\Jk 16F\ 16D\	16cc/Jk	16a\Jk 16d\	.
4B-\ 4F\ 4D\	2dd/ 2b-^^/	4d\	.
(8qD/	.	8qf/	.
(4C/ 4CC^TT/)	.	(<4e-TT\	.
16qqBB-/LL	.	16qqd/LL	.
16qqC/JJ)	.	16qqe-/JJ)	.
!!LO:LB:g=original
=98	=98	=98	=98
*	*	*ped	*
4D/ 4DD/	8rdd	4f\	.
.	(<16dd/LL 16b-/	.	.
.	16ee-/JJ 16cc/)	.	.
8.B-\L 8.F\ 8.D\	8.dd/L 8.b-/	8.f\L	.
*	*	*Xped	*
.	.	.	.
16B-\Jk 16F\ 16D\	16cc/Jk 16a/	16f\Jk	.
4B-\ 4F\ 4D\	[2dd/ 2b-^^/	4f\	.
(8qF/	.	8qa/	.
4E-/ 4EE-^TT/)	.	4gTT\	.
16qqD/LL	.	16qqf/LL	.
16qqE-/JJ	.	16qqg/JJ	.
=99	=99	=99	=99
4F/ 4FF/	8.dd^/L]	4a\	.
.	16cc/Jk	.	.
8.G\L 8.GG\	8.b-/L 8.g/	4ryy	.
16A\Jk 16F\ 16AA\	16cc/Jk 16f/ 16c/	.	.
4B-\ 4F\ 4BB-\	4dd/ 4b-/ 4f/ 4d/	2ryy	.
4G\ 4D\ 4BB-\ 4GG\	4b-/ 4g/ 4d/ 4B-/	.	.
=100	=100	=100	=100
*	*ped	*	*
!LO:TX:t=P:problem:mixed beam	!	!	!
8C/L 8GG/ 8CC^/	2gg/ 2ee-/ 2cc^^/	8.b-\L 8.g\	.
16r	.	.	.
16e-\Jk 16B-\ 16G\	.	16b-\Jk 16g\	.
4e-\ 4B-\ 4G^\	.	4b-\ 4g^>\	.
*	*Xped	*	*
.	.	.	.
*	*ped	*	*
!LO:TX:t=P:problem:mixed beam	!	!	!
8FF/L 8FFF/	2ff/ 2ee-/ 2cc^^/	8.a\L 8.f\	.
16r	.	.	.
16e-\Jk 16c\ 16A\ 16F\	.	16f\Jk	.
4e-\ 4c\ 4A\ 4F^\	.	4cc\ 4f^\	.
*	*Xped	*	*
.	.	.	.
*	*v	*v	*
=101	=101	=101
*	*ped	*
!	!	!LO:DY:rj
4BB-/ 4BBB-/	2.bb-\ 2.ff\ 2.dd\ 2.b-^^\	fff
8.d\L 8.B-\ 8.F\ 8.D\	.	.
16d\Jk 16B-\ 16F\ 16D\	.	.
4d\ 4B-\ 4F\ 4D\	.	.
*	*Xped	*
.	.	.
8.BB-/L 8.BBB-/	8ff\L 8dd\ 8b-'\	.
.	8ff\J 8dd\ 8b-'\	.
16BB-/Jk 16BBB-/	.	.
!!LO:LB:g=original
=102	=102	=102
*	*ped	*
4BB-/ 4BBB-/	2.ff\ 2.dd\ 2.b-^\	.
8.d\L 8.B-\ 8.F\ 8.D\	.	.
16d\Jk 16B-\ 16F\ 16D\	.	.
4d\ 4B-\ 4F\ 4D\	.	.
*	*Xped	*
.	.	.
8.BB-/L 8.BBB-/	12dd/L 12b-/ 12f'/	.
.	12dd/ 12b-/ 12f'/	.
.	12dd/J 12b-/ 12f'/	.
16BB-/Jk	.	.
=103	=103	=103
*	*ped	*
4BB-/ 4BBB-/	2.dd/ 2.b-/ 2.f^/	.
8.d\L 8.B-\ 8.F\ 8.D\	.	.
16d\Jk 16B-\ 16F\ 16D\	.	.
4d\ 4B-\ 4F\ 4D\	.	.
*	*Xped	*
.	.	.
*	*Xtuplet	*
!LO:TUP:b	!	!
12BB-/L 12BBB-'/	12b-/L 12f/ 12d'/	.
12BB-/ 12BBB-'/	12b-/ 12f/ 12d'/	.
12BB-/J 12BBB-'/	12b-/J 12f/ 12d'/	.
=104	=104	=104
*	*ped	*
4BB-/ 4BBB-/	4b-/ 4f/ 4d/	.
4F\ 4BB-\	4f/| 4d/	.
4BB-/ 4BBB-/	4d/| 4B-/	.
4F\ 4BB-\	4f/| 4d/	.
=105	=105	=105
2BB-/ 2BBB-/	2b-/ 2d/ 2B-^/	.
!LO:N:n=1:vis=4 	!	!
2F/ 2BB-/ 2BBB-/	2b-/ 2d/ 2B-^/	.
=106	=106	=106
8qBB-/ 8qFF/ 8qBBB-/	8qb-/ 8qd/ 8qB-/	.
1BB-/ 1FF/ 1BBB-/;	1b-/ 1d/ 1B-/^;	.
==	==	==
*-	*-	*-
!!!system-decoration: {(s1,s2)}
!!!ENC: Marcin Jachim
!!!END: 2021-08-16
!!!RDF**dynam: < = cres:
!!!RDF**kern: > = above
!!!RDF**kern: < = below
!!!RDF**kern: | = vertical stroke
!!!EED: Andrzej Borzym
!!!EST: 2021-09-23
